X:298
T: SCHAETZCHEN ADE! SCHEIDEN THUT WEH!
N: Z0296
O: Europa, Mitteleuropa, Deutschland, Wuerzburg
R: Lyrisches Lied, Romanze, Abschieds - Lied
M: 3/8
L: 1/16
K: G
B2B2A2 | G6 | B2B2A2 | G6 |
B2c2d2 | d2c2c2 | A2c2c2 | c2BAB2 |
B2B2c2 | d6 | B2B2A2 | G6

@@@ Tune index: 10056
